X:1
T:Valses poéticos
T:Vivo
T:Valses poéticos
T:No. 7
T:Enrique Granados
T:OpenScore (CC0)
C:Enrique Granados
Z:OpenScore (CC0)
%%score { ( 1 4 ) | ( 2 3 ) }
L:1/8
Q:1/4=230
M:3/4
K:A
V:1 treble nm="Piano" snm="Pno."
V:4 treble 
V:2 treble 
V:3 treble 
V:1
"^Vivo"!8va(! [f''a''][c''g''][a'f'']!8va)! z z2 |!8va(! [c''e''][g'd''][e'c'']!8va)! z z2 | %2
!<(! [f'a'][c'g'][af'] z z2 | [c'e'][gd'][ec'] z z2!<)! | (A^eaae'a') |!ff! [af'a']2 [af'a']2 z2 | %6
!f! (E^Beebe') |!ff! !>![ec'e']2 !>![ec'e']2 z2 |!8va(! [f''a''][c''g''][a'f'']!8va)! z z2 | %9
!8va(! [c''e''][g'd''][e'c'']!8va)! z z2 |!<(! [f'a'][c'g'][af'] z z2 | [c'e'][gd'][ec'] z z2!<)! | %12
!f! (A^eaae'a') | !>![af'a']2 !>![af'a']2 z2 |!f! (E^Beebe') | [ec'e']2 !fermata![ec'e']4!fine! |: %16
 (ec d3 c) | (eB c3 B) |{AB} (AGAcBA) | (AGFE E2) | (af g3 f) | (ae f3 e) |"_rall."{de} (dcdfed | %23
 c6)!D.C.! :| %24
V:2
 z2 z .f'.c'.f | z2 z .c'.g.e | z2 z .f.c.F | z2 z .c.G.C |[K:bass]!f! A,,,2 [A,C=G]2 z2 | %5
 D,,2 [A,DF]2 z2 | E,,2 [E,G,D]2 z2 | A,,2 [E,A,C]2 z2 |[K:treble] z2 z .f'.c'.f | z2 z .c'.g.e | %10
 z2 z .f.c.F | z2 z .c.G.C |[K:bass] A,,,2 [A,C=G]2 z2 | D,,2 [A,DF]2 z2 | E,,2 [E,G,D]2 z2 | %15
 A,,2[K:treble]!8va(! !fermata!a'4[K:bass]!8va)! |: x2[I:staff -1] F2 C2 | %17
[I:staff +1] x2[I:staff -1] F2 C2 |[I:staff +1] F,2 B,,2 z2 | E,2 B,,2 E,,2 | x2 D2 A,2 | %21
 x2 [CE]2 A,2 | z2 G,2 E,G, | A,2 !fermata![E,A,]4 :| %24
V:3
 x6 | x6 | x6 | x6 |[K:bass] x6 | x6 | x6 | x6 |[K:treble] x6 | x6 | x6 | x6 |[K:bass] x6 | x6 | %14
 x6 | x2[K:treble]!8va(! x2[K:bass] x2!8va)! |: A,6 | A,6 | x6 | x6 | F,6 | C,6 | E,,6 | A,,6 :| %24
V:4
!8va(! x3!8va)! x3 |!8va(! x3!8va)! x3 | x6 | x6 | x6 | x6 | x6 | x6 |!8va(! x3!8va)! x3 | %9
!8va(! x3!8va)! x3 | x6 | x6 | x6 | x6 | x6 | x6 |: x6 | x6 | E2 ^D2 [B,D]2 | [B,E]2 A,2 G,2 | x6 | %21
 x6 | z2 F2 GE | BE !fermata![CA]4 :| %24

